!!!COM: Palestrina, Giovanni Perluigi da
!!!OPR: In minoribus duplicibus
!!!OTL: Credo
**kern	**kern	**kern	**kern
*Ibass	*Itenor	*Icalto	*Icant
!Bassus	!Tenor	!Altus	!Cantus
*clefF4	*clefGv2	*clefG2	*clefG2
*k[]	*k[]	*k[]	*k[]
*?:X	*?:X	*?:X	*?:X
*M4/2	*M4/2	*M4/2	*M4/2
=1	=1	=1	=1
1r	0r	0e	0r
[1A	.	.	.
=2	=2	=2	=2
1A]	0r	2A	0a
.	.	2e	.
2D	.	2d	.
2A	.	2c	.
=3	=3	=3	=3
2G	0r	2B	2d
2F	.	2A	2a
2E	.	4B	2g
.	.	4G	.
2D	.	4A	2f
.	.	4B	.
=4	=4	=4	=4
2C	1r	2c	2e
2BB	.	2d	1d
1AA	[1A	1e	.
.	.	.	2c#
=5	=5	=5	=5
2.D	1A]	1.f	1d
4E	.	.	.
1F	2D	.	1a
.	2A	4e	.
.	.	4d	.
=6	=6	=6	=6
2C	2G	2e	2cc
2D	2F	1d	2a
1AA	1E	.	1a
.	.	2c#	.
=7	=7	=7	=7
1D	4D	2d	1a
.	4E	.	.
.	4F	2A	.
.	4G	.	.
1r	1A	2.c	2r
.	.	.	2e
.	.	4d	.
=8	=8	=8	=8
0r	0r	2e	2g
.	.	2f	2a
.	.	4g	1b
.	.	4f	.
.	.	4e	.
.	.	4d	.
=9	=9	=9	=9
1AA	0r	1e	1.cc
2C	.	2e	.
2D	.	2f	4b
.	.	.	4a
=10	=10	=10	=10
1E	0r	2.e	2cc
.	.	.	2.b
.	.	4d	.
1F	.	2c	.
.	.	.	4a
.	.	4B	[2a
.	.	4A	.
=11	=11	=11	=11
1E	1r	1B	4a]
.	.	.	4g#
.	.	.	4g#
.	.	.	8a
.	.	.	8b
4AA	2r	1A	1cc
4BB	.	.	.
4C	2E	.	.
4D	.	.	.
=12	=12	=12	=12
2E	2G	1r	2b
2F	2A	.	1a
1E	1B	2r	.
.	.	[2e	2g#
=13	=13	=13	=13
1A	1c	2e]	1a
.	.	2f	.
2.G	2.B	[1g	2r
.	.	.	[2b
4F	4A	.	.
=14	=14	=14	=14
4E	2B	2g]	2b]
4D	.	.	.
2C	1A	2e	2cc
1BB	.	2.d	[1dd
.	2G#	.	.
.	.	4e	.
=15	=15	=15	=15
1AA	1A	2f	2dd]
.	.	2.e	2cc
2r	1r	.	2b
.	.	4d	.
[2E	.	[2g	[2b
=16	=16	=16	=16
2E]	1r	2g]	2b]
2F	.	4f	2a
.	.	4e	.
[1G	2r	2.d	[1g
.	[2B	.	.
.	.	4c	.
=17	=17	=17	=17
2G]	2B]	2d	1g]
2E	2c	2e	.
2.D	[1d	1A	1r
4E	.	.	.
=18	=18	=18	=18
2F	2d]	0r	0r
2.E	2c	.	.
.	2B	.	.
4D	.	.	.
[2G	[2B	.	.
=19	=19	=19	=19
2G]	2B]	0r	1r
2F#	2A	.	.
2G	1G	.	2r
[2E	.	.	[2b
=20	=20	=20	=20
2E]	0r	1.e	2b]
2A	.	.	2cc
2G	.	.	2b
2F	.	2f	2a
=21	=21	=21	=21
1.G	2r	2e	1.b
.	1B	2d	.
.	.	[1e	.
2A	2c	.	2a
=22	=22	=22	=22
0E	2B	2e]	2g
.	2A	2e	1a
.	2B	1e	.
.	2B	.	2g#
=23	=23	=23	=23
0AA	0A	2r	1a
.	.	1e	.
.	.	.	2r
.	.	2A	[2a
=24	=24	=24	=24
0r	0r	4d	2a]
.	.	4e	.
.	.	4f	2d
.	.	4d	.
.	.	2e	2g
.	.	2f	2a
=25	=25	=25	=25
0r	0r	2e	2g
.	.	2d	2f
.	.	2c	2e
.	.	[2f	[2d
=26	=26	=26	=26
2r	1A	2f]	2d]
1A	.	2e	2c
.	2D	1f#	1d
2D	[2d	.	.
=27	=27	=27	=27
2G	2d]	2g	2.e
2A	2c	1e	.
.	.	.	4f#
2G	2B	.	2g
2F	2A	2d	[2a
=28	=28	=28	=28
1E	1B	1e	2a]
.	.	.	2g
[1D	1d	[1f	4a
.	.	.	4g
.	.	.	4f
.	.	.	4e
=29	=29	=29	=29
2D]	1A	2f]	2d
2C#	.	2e	2e
1D	2.A	1d	1f
.	4B	.	.
=30	=30	=30	=30
1E	2c	2r	2e
.	2B	2g	2e
1r	1r	2e	2g
.	.	2f	2a
=31	=31	=31	=31
2r	2r	1g	1b
2G	2E	.	.
2E	2G	2g	1cc
2F	2A	4f	.
.	.	4e	.
=32	=32	=32	=32
2G	2B	2d	2b
2A	2c	2f	2a
2E	2B	2e	2g
2F	2A	[2d	2a
=33	=33	=33	=33
2G	2B	2d]	1e
2A	1A	2c	.
1E	.	1B	1b
.	2G#	.	.
=34	=34	=34	=34
1AA	1A	1e	1cc
1r	1r	2f	[1dd
.	.	2g	.
=35	=35	=35	=35
1r	0r	2f	2dd]
.	.	2.e	2cc
1E	.	.	1b
.	.	4d	.
.	.	4B	.
.	.	4c	.
=36	=36	=36	=36
2F	0r	0d	2a
1G	.	.	1b
2F	.	.	[2a
=37	=37	=37	=37
1E	1B	0e	2a]
.	.	.	2g#
1AA	1c	.	[1a
=38	=38	=38	=38
0r	1.d	1.f	2a]
.	.	.	2a
.	.	.	2d
.	2c	2e	[2a
=39	=39	=39	=39
1E	1B	2r	2a]
.	.	1e	2g#
2AA	[1A	.	1a
[2D	.	2A	.
=40	=40	=40	=40
2D]	1A]	2d	2f
2C#	.	2e	2e
1D	2r	1f	1d
.	[2A	.	.
=41	=41	=41	=41
2C	2A]	2e	2r
2BB	2D	2d	1dd
1AA	[1A	2e	.
.	.	2e	4cc
.	.	.	4b
=42	=42	=42	=42
0r	2A]	2A	2cc
.	2G	1e	2b
.	1A	.	2.cc
.	.	2c	.
.	.	.	4a
=43	=43	=43	=43
0r	2G	1d	2b
.	2F	.	1a
.	1E	2c	.
.	.	2B	2g#
=44	=44	=44	=44
1D	2r	1A	1a
.	2D	.	.
2AA	2C	1r	1r
2C	2E	.	.
=45	=45	=45	=45
1BB	1G	1r	1d
2AA	1A	2r	2c
2A	.	2A	2e
=46	=46	=46	=46
2E	1r	2G	1g
2G	.	2B	.
1F	2r	1d	1a
.	2A	.	.
=47	=47	=47	=47
1E	2c	1e	2r
.	2B	.	2b
1r	2A	1e	2cc
.	2G	.	2b
=48	=48	=48	=48
0r	2F	2f	2a
.	2.G	2e	1b
.	.	2d	.
.	4F	.	.
.	2A	2c	[2a
=49	=49	=49	=49
1r	2E	1B	2a]
.	2E	.	2g#
2r	2.F	1A	2a
[2D	.	.	[2f
.	4G	.	.
=50	=50	=50	=50
2D]	1A	1r	2f]
2C	.	.	2e
1BB	1D	2r	1d
.	.	[2d	.
=51	=51	=51	=51
1AA	1r	2d]	2.e
.	.	2c	.
.	.	.	4f
1GG	2r	1B	1g
.	[2G	.	.
=52	=52	=52	=52
1D	2G]	1A	1r
.	2F	.	.
1r	1E	1G	2r
.	.	.	[2g
=53	=53	=53	=53
0r	1D	1A	2g]
.	.	.	2f
.	2C	2c	1e
.	2E	2B	.
=54	=54	=54	=54
1D	1.F	0A	1d
2.AA	.	.	1c
.	[2E	.	.
4BB	.	.	.
=55	=55	=55	=55
2C	2E]	1.A	2e
2D	1D	.	1f
1AA	.	.	.
.	2C#	2A	[2e
=56	=56	=56	=56
1BB-	1D	2F	2e]
.	.	2G	1d
1AA	1E	1A	.
.	.	.	2c#
=57	=57	=57	=57
2r	1D	0A	1d
1D	.	.	.
.	2r	.	1r
2C	[2A	.	.
=58	=58	=58	=58
2D	2A]	2r	1r
2E	2G	1e	.
1F	1A	.	2r
.	.	2d	[2a
=59	=59	=59	=59
2.E	2B	1.e	2a]
.	2.c	.	2g
4D	.	.	.
2C	.	.	1a
.	4B	.	.
2D	[2A	2f	.
=60	=60	=60	=60
1BB	2A]	1d	1b
.	2G#	.	.
2AA	1A	4c	[1cc
.	.	4d	.
[2A	.	4e	.
.	.	4f	.
=61	=61	=61	=61
2A]	2r	1e	2cc]
2A	1e	.	4b
.	.	.	4a
2G	.	1r	4b
.	.	.	4g
2F	2d	.	[2a
=62	=62	=62	=62
1E	2c	1.e	2a]
.	2B	.	2g#
2.A	1c	.	2a
.	.	2e	[2a
4G	.	.	.
=63	=63	=63	=63
4F	1A	2d	2a]
4E	.	.	.
2F	.	2c	2a
2G	2.d	2B	2g
2D	.	2A	2f
.	4c	.	.
=64	=64	=64	=64
1E	1B	1G	2e
.	.	.	2d
2.F	2.A	[1A	1c
4E	4G	.	.
=65	=65	=65	=65
1D	1F	2A]	1d
.	.	2B	.
2C	2G	[1c	[1e
2AA	[2A	.	.
=66	=66	=66	=66
1C	2A]	1c]	1e]
.	2G	.	.
2.D	2F	1A	1r
.	2F	.	.
4D	.	.	.
=67	=67	=67	=67
2AA	1E	1c	2r
1C	.	.	2e
.	1r	[1d	1g
2BB	.	.	.
=68	=68	=68	=68
1AA	1E	2d]	2.a
.	.	2c	.
.	.	.	4a
1GG	1G	1B	1d
=69	=69	=69	=69
2.FF	1A	1.c	1f
4GG	.	.	.
2AA	2A	.	2e
2BB-	2D	2G	2d
=70	=70	=70	=70
0AA	1F	[0A	2c
.	.	.	1d
.	1E	.	.
.	.	.	2c#
=71	=71	=71	=71
1r	1D	0A]	0d
1D	2r	.	.
.	2A	.	.
=72	=72	=72	=72
2E	2G	0r	0r
2F	2A	.	.
2.G	1B	.	.
4F	.	.	.
=73	=73	=73	=73
2E	2.c	1r	0r
1A	.	.	.
.	8B	.	.
.	8A	.	.
.	2B	2r	.
2G#	2B	2e	.
=74	=74	=74	=74
0A	2A	2e	2r
.	2c	2e	2a
.	2c	1e	2a
.	2c	.	2a
=75	=75	=75	=75
0r	1F	1A	1a
.	2G	1B	1d
.	2G	.	.
=76	=76	=76	=76
2r	1E	1c	1e
2G	.	.	.
1A	1D	2d	1f#
.	.	2d	.
=77	=77	=77	=77
2G	0r	1e	2g
2E	.	.	2g
1F	.	2d	1a
.	.	2c	.
=78	=78	=78	=78
1G	2r	4B	1g
.	.	4c	.
.	2G	1d	.
1r	1A	.	2f
.	.	2c	[2e
=79	=79	=79	=79
1r	2G	2B	4e]
.	.	.	4d
.	2F	2A	1d
2r	1E	2G	.
2G	.	[2g	2c#
=80	=80	=80	=80
1A	1D	2g]	1d
.	.	2f	.
2G	1r	2e	2r
2F	.	[2d	2a
=81	=81	=81	=81
1E	2r	2d]	1g
.	2G	2c#	.
2D	1A	2d	2f
2AA	.	[2c	[2e
=82	=82	=82	=82
2C	2G	4c]	2e]
.	.	4B	.
2D	2F	4A	1d
.	.	4G	.
1AA	1E	1A	.
.	.	.	2c#
=83	=83	=83	=83
0D	0D	0A	0d
=84	=84	=84	=84
0D	0d	0f	0a
=85	=85	=85	=85
1A	1c	1e	1a
1D	1d	1f	2a
.	.	.	[2a
=86	=86	=86	=86
1E	1c	1e	2a]
.	.	.	4g
.	.	.	4f
1E	1B	2.e	2g
.	.	.	2g
.	.	4d	.
=87	=87	=87	=87
2F	2A	2c	0a
2D	2A	2f	.
1A	1c	1e	.
=88	=88	=88	=88
2G	2B	0r	0r
2F	2A	.	.
1E	1c	.	.
=89	=89	=89	=89
0D	0d	2r	2r
.	.	2d	2a
.	.	1f	1dd
=90	=90	=90	=90
1r	0r	2e	2cc
.	.	2d	2b
2r	.	1f#	1a
2D	.	.	.
=91	=91	=91	=91
2E	2r	1g	0g
4C	1c	.	.
4D	.	.	.
4E	.	1r	.
4F	.	.	.
4G	2B	.	.
4E	.	.	.
=92	=92	=92	=92
2.F	1.A	0r	0r
4E	.	.	.
4C	.	.	.
4D	.	.	.
2E	2G	.	.
=93	=93	=93	=93
1D	2F	1r	0r
.	1A	.	.
2C	.	2r	.
2BB	[2G	2d	.
=94	=94	=94	=94
1AA	2G]	2e	1.cc
.	2F#	4c	.
.	.	4d	.
1GG	2G	4e	.
.	.	4f	.
.	2G	4g	2b
.	.	4d	.
=95	=95	=95	=95
1D	2A	2.f	1.a
.	4F	.	.
.	4G	4e	.
1r	4A	4c	.
.	4B	4d	.
.	4c	2e	2g
.	4G	.	.
=96	=96	=96	=96
0r	2B-	2d	2f
.	2A	1c	1a
.	2F	.	.
.	2G	2B	[2g
=97	=97	=97	=97
0r	1D	1A	2g]
.	.	.	2f#
.	1r	1G	1g
=98	=98	=98	=98
0FF	0F	0c	0a
=99	=99	=99	=99
1C	1E	1c	1g
4AA	2E	2c	1a
4BB	.	.	.
4C	[2c	[2e	.
4D	.	.	.
=100	=100	=100	=100
4E	2c]	2e]	1g
4F	.	.	.
2G	1B	2d	.
1D	.	2.d	1f
.	[2A	.	.
.	.	4c	.
=101	=101	=101	=101
0E	2A]	0B	[0e
.	4G#	.	.
.	4F#	.	.
.	1G#	.	.
=102	=102	=102	=102
0AA	0A	0c	0e]
*	*	*	*-
!! Crucifixus
*Itenor	*Icalto	*Icant
!Tenor	!Altus	!Cantus
*clefGv2	*clefG2	*clefG2
*k[]	*k[]	*k[]
*?:X	*?:X	*?:X
*M4/2	*M4/2	*M4/2
=103	=103	=103
0r	1d	0r
.	1c	.
=104	=104	=104
0r	1d	1a
.	1e	1g
=105	=105	=105
0r	4f	1a
.	4e	.
.	4f	.
.	4d	.
.	4g	1b
.	4f	.
.	4e	.
.	4d	.
=106	=106	=106
1A	1e	4cc
.	.	4b
.	.	4cc
.	.	4a
1G	2.g	2b
.	.	[2dd
.	4g	.
=107	=107	=107
1A	2f	2dd]
.	2e	2cc
1B	1d	4dd
.	.	4cc
.	.	4b
.	.	4a
=108	=108	=108
4c	1e	2g
4B	.	.
4c	.	2a
4A	.	.
2B	2d	1b
[2G	[2d	.
=109	=109	=109
2G]	2d]	2.e
2A	2c	.
.	.	4f
2B	2d	2.g
2c	2e	.
.	.	4a
=110	=110	=110
1B	4g	4b
.	4f	4cc
.	4e	1dd
.	4d	.
1A	1e	.
.	.	2cc#
=111	=111	=111
1D	0f#	2dd
.	.	1a
1d	.	.
.	.	[2d
=112	=112	=112
1G	0r	2d]
.	.	2e
2A	.	2f
2B	.	[2g
=113	=113	=113
2c	0r	2g]
2.d	.	2.f
4c	.	4e
[2c	.	4e
.	.	8d
.	.	8c
=114	=114	=114
2c]	1r	1d
2B	.	.
2c	2r	1c
[2A	[2e	.
=115	=115	=115
2A]	2e]	1a
1F	1A	.
.	.	1d
2G	2B	.
=116	=116	=116
2E	2c	2e
2D	1d	2f
2E	.	2g
2F	[2c	[2a
=117	=117	=117
1G	4c]	4a]
.	4B	4g
.	4B	1g
.	8A	.
.	8G	.
1D	1A	.
.	.	2f#
=118	=118	=118
2.E	2G	[0g
.	1c	.
4F	.	.
1G	.	.
.	2B	.
=119	=119	=119
2r	4c	1g]
.	4d	.
1c	4e	.
.	4f	.
.	2g	1r
2B	2d	.
=120	=120	=120
2c	2e	0r
2A	2c	.
2B	2.d	.
2G	.	.
.	4e	.
=121	=121	=121
2.A	2f	2r
.	4e	1cc
4B	4d	.
4c	4e	.
4d	4f	.
2e	2g	2b
=122	=122	=122
2A	2e	2cc
2d	2f#	2a
2G	[1g	2b
2G	.	2g
=123	=123	=123
0D	2g]	1a
.	2f#	.
.	2f#	1dd
.	4r	.
.	4d	.
=124	=124	=124
0A	2e	2cc
.	2f	2a
.	1e	1cc
=125	=125	=125
2r	2.d	2dd
2d	.	2d
.	8c	.
.	8B	.
2c	2A	2e
2A	2a	2f
=126	=126	=126
1c	2g	1e
.	2e	.
1d	1f	[1a
=127	=127	=127
2.A	2e	1a]
.	2.e	.
4B	.	.
2c	.	1r
.	4f	.
2B	2g	.
=128	=128	=128
2A	2f	0r
2.c	2e	.
.	4A	.
4B	4B	.
[2A	4c	.
.	4A	.
=129	=129	=129
2A]	1B	0r
2G#	.	.
2A	2A	.
2A	2c	.
=130	=130	=130
2B	2d	1g
2c	2e	.
4F	2f	1a
4G	.	.
4A	4e	.
4B	4d	.
=131	=131	=131
2c	2e	2g
2d	1d	2f
2.A	.	1e
.	2c#	.
4G	.	.
=132	=132	=132
4F	1d	0d
4D	.	.
2.G	.	.
.	2r	.
8F#	.	.
8E	.	.
2F#	2A	.
=133	=133	=133
2.G	2B	2r
.	2d	2d
4F	.	.
1E	2d	2e
.	2c	2g
=134	=134	=134
1D	1d	2g
.	.	2f#
1r	1e	1g
=135	=135	=135
0r	2r	1a
.	2d	.
.	2e	2r
.	2f	2a
=136	=136	=136
2r	2.e	2b
2A	.	2cc
.	8d	.
.	8c	.
2B	2d	2b
2c	2e	4a
.	.	4g
=137	=137	=137
2B	2g	2b
2A	2a	2cc
2B	2.g	2dd
2G	.	2b
.	4f	.
=138	=138	=138
0A	2e	2cc#
.	2d	1dd
.	1e	.
.	.	2cc#
=139	=139	=139
1D	2d	0dd
.	2a	.
2r	2g	.
2d	2f	.
=140	=140	=140
2c	2e	2r
2B	2d	2dd
2A	2e	2cc
2G	2e	2b
=141	=141	=141
2F	2f	2a
2G	4e	2g
.	4d	.
2A	2c	2f
[2G	2B	2g
=142	=142	=142
4G]	1A	1a
4F#	.	.
4F#	.	.
8E	.	.
8F#	.	.
2G	1B	2r
2G	.	2g
=143	=143	=143
2F#	1r	2a
2G	.	2b
4D	2r	[1a
4E	.	.
4F	2d	.
4G	.	.
=144	=144	=144
2A	2c#	1a]
4D	2d	.
4E	.	.
4F	4A	1a
4G	4B	.
4A	4c	.
4B	4d	.
=145	=145	=145
4c	4e	1g
4d	4f	.
2e	1g	.
2.d	.	1a
.	2f	.
4c	.	.
=146	=146	=146
2B	2d	1g
2c	1e	.
1d	.	1f
.	[2d	.
=147	=147	=147
0A	2d]	0e
.	4c	.
.	4B	.
.	1c	.
=148	=148	=148
1D	1f	1d
[1A	2.e	1c
.	4d	.
=149	=149	=149
2A]	2c	2.e
2A	2c	.
.	.	4f
2G	2B	2g
2F	2A	[2a
=150	=150	=150
1E	1B	2a]
.	.	2g#
4F	2r	[1a
4E	.	.
4D	[2d	.
4E	.	.
=151	=151	=151
4F	2d]	1a]
4G	.	.
2A	2c	.
2D	1d	2r
2F	.	[2a
=152	=152	=152
1E	1e	2a]
.	.	2g
1D	1f	1a
=153	=153	=153
1r	2e	1b
.	2d	.
1A	4c	1cc
.	4d	.
.	4e	.
.	4c	.
=154	=154	=154
2G	2d	2b
2A	2c	2a
1E	1B	1g
=155	=155	=155
2r	1A	2.a
1D	.	.
.	.	4g
.	2r	2f
2C#	[2A	2e
=156	=156	=156
2D	2A]	2f
2E	2G	2e
1F	1A	2r
.	.	[2a
=157	=157	=157
2E	1B	2a]
2E	.	2g
1A	2c	1a
.	[2e	.
=158	=158	=158
1G	2e]	1b
.	2d	.
2r	1e	[1cc
[2A	.	.
=159	=159	=159
2A]	2f	2cc]
2G	1g	1b
1A	.	.
.	[2f	[2a
=160	=160	=160
2B	2f]	2a]
2c	2e	2g
4F	[1f	[1a
4E	.	.
4D	.	.
4C	.	.
=161	=161	=161
2D	2f]	2a]
2E	2e	2g
2F	1d	1f
2G	.	.
=162	=162	=162
0A	0c#	0e
*-	*-	*-
!! Et in Spiritum
**kern	**kern	**kern	**kern
*Ibass	*Itenor	*Icalto	*Icant
!Bassus	!Tenor	!Altus	!Cantus
*clefF4	*clefGv2	*clefG2	*clefG2
*k[]	*k[]	*k[]	*k[]
*?:X	*?:X	*?:X	*?:X
*M4/2	*M4/2	*M4/2	*M4/2
=163	=163	=163	=163
1.D	1.d	1.f	1.a
2D	2A	2f	2d
=164	=164	=164	=164
2C#	2A	2e	2e
2D	2A	2d	2f#
2GG	2B	2d	2g
[2C	[2c	[2e	[2g
=165	=165	=165	=165
2C]	2c]	2e]	2g]
2AA	2c	2f	2a
2C	2c	2e	2g
2D	2A	2d	2f
=166	=166	=166	=166
1AA	1A	1c#	1e
[1D	[1A	2.d	2r
.	.	.	[2d
.	.	4e	.
=167	=167	=167	=167
2D]	2A]	2f	2d]
2C#	2A	2e	2e
2D	2A	[1d	2f
2GG	[2B-	.	2g
=168	=168	=168	=168
1AA	4B-]	2d]	2f
.	4A	.	.
.	1A	2c	2e
1BB-	.	2f	[1d
.	2G	4e	.
.	.	4d	.
=169	=169	=169	=169
1AA	1A	2f	2d]
.	.	2e	2c#
1D	1F	2r	2r
.	.	2A	2d
=170	=170	=170	=170
2C	2G	2c	2e
1F	1A	1c	1f
2C	2G	2c	2e
=171	=171	=171	=171
2D	2F	2A	2f
2D	2F	2B	2d
2C	2G	2c	2e
2FF	2A	[2c	2f
=172	=172	=172	=172
1GG	1G	2c]	2e
.	.	2B-	1d
1AA	1E	1A	.
.	.	.	2c#
=173	=173	=173	=173
0D	1D	1A	1d
.	2r	1f	1a
.	[2d	.	.
=174	=174	=174	=174
0r	2d]	1d	2f
.	2B	.	1g
.	1c	1e	.
.	.	.	[2a
=175	=175	=175	=175
0r	2d	2f	2a]
.	2G	2g	2b
.	2F	2a	2cc
.	2G	2g	2b
=176	=176	=176	=176
2r	2d	2f	2a
1A	1c	1e	1a
2E	2B	2e	2g
=177	=177	=177	=177
2A	2c	2e	2a
2G	2d	2g	2b
4C	1e	[1g	1cc
4D	.	.	.
4E	.	.	.
4F	.	.	.
=178	=178	=178	=178
1G	1.d	1g]	1b
1A	.	1e	1a
.	2c#	.	.
=179	=179	=179	=179
1D	2r	1f	2r
.	2A	.	2dd
2F	2A	2f	2cc
2G	2B	2d	2b
=180	=180	=180	=180
2F	2c	2f	2a
2C	2c	2e	2g
1D	1A	[1d	1f#
=181	=181	=181	=181
1GG	1B-	1d]	1g
1AA	[1A	1c	1e
=182	=182	=182	=182
2D	0A]	2f	2d
2C#	.	2e	2e
2D	.	2d	2f
2AA	.	2c	2e
=183	=183	=183	=183
1GG	2D	1B-	1g
.	2E	.	.
2D	2F	1A	1a
2C	2E	.	.
=184	=184	=184	=184
1BB-	1G	2r	2.d
.	.	1d	.
.	.	.	4e
1AA	1A	.	2f
.	.	2c	[2e
=185	=185	=185	=185
2GG	1D	2B-	2e]
2BB-	.	2G	1d
1AA	1E	2.A	.
.	.	.	2c#
.	.	4G	.
=186	=186	=186	=186
2r	1D	2.F	0d
2A	.	.	.
.	.	4E	.
2A	2r	2D	.
2G	2d	2B-	.
=187	=187	=187	=187
1F	2d	1A	0r
.	2c	.	.
4G	1B	1r	.
4F	.	.	.
4E	.	.	.
4D	.	.	.
=188	=188	=188	=188
2E	2c	0r	0r
2F	2A	.	.
2G	2B	.	.
2E	2c#	.	.
=189	=189	=189	=189
1D	1d	2r	2r
.	.	2f	2dd
1r	1r	2.e	2.cc
.	.	4d	4b
=190	=190	=190	=190
1r	1r	2c	2a
.	.	2B	2g#
2r	2r	1A	2a
2D	2d	.	2f
=191	=191	=191	=191
2.E	2.c	0r	1g
4D	4B	.	.
2C	2A	.	2a
2BB	2G#	.	2b
=192	=192	=192	=192
4AA	1A	0r	1cc
4BB	.	.	.
4C	.	.	.
4D	.	.	.
2E	1G	.	1r
2C	.	.	.
=193	=193	=193	=193
4D	1F	0r	1r
4E	.	.	.
1F	.	.	.
.	2.G	.	2r
2E	.	.	2g
.	4G	.	.
=194	=194	=194	=194
1F	0F	1c	2.a
.	.	.	4a
1D	.	2.d	2a
.	.	.	2d
.	.	4d	.
=195	=195	=195	=195
0r	0r	2d	2f
.	.	2G	2g
.	.	2A	[1f
.	.	2B-	.
=196	=196	=196	=196
0r	0r	4A	2f]
.	.	4F	.
.	.	2.c	2e
.	.	.	1d
.	.	8B	.
.	.	8A	.
.	.	2B	.
=197	=197	=197	=197
1AA	1r	2c	1c
.	.	1A	.
1BB-	1D	.	2r
.	.	2G	[2d
=198	=198	=198	=198
1AA	1E	1A	2d]
.	.	.	2c
2GG	1G	2B	1d
2BB	.	[2d	.
=199	=199	=199	=199
1AA	1C	2d]	1e
.	.	2.c	.
1GG	1D	.	1g
.	.	8B	.
.	.	8A	.
.	.	2B	.
=200	=200	=200	=200
2.AA	2A	1.c	2f
.	1A	.	2e
4GG	.	.	.
2FF	.	.	2f
2GG	2G	2B	[2e
=201	=201	=201	=201
0AA	2F	1A	4e]
.	.	.	4d
.	4E	.	1d
.	4D	.	.
.	1E	1A	.
.	.	.	2c#
=202	=202	=202	=202
0D	0F#	1A	1d
.	.	2.d	2r
.	.	.	[2a
.	.	4e	.
=203	=203	=203	=203
1r	0r	2f#	2a]
.	.	2g	2b
1AA	.	1e	1cc#
=204	=204	=204	=204
2.D	2r	0d	0dd
.	1A	.	.
4E	.	.	.
2F#	.	.	.
2G	2B	.	.
=205	=205	=205	=205
1E	1c#	2r	1r
.	.	1g	.
1D	1d	.	2r
.	.	2f	2dd
=206	=206	=206	=206
2C	2r	1.g	2ee
2BB	2d	.	2dd
2C	2e	.	2cc
2GG	2d	2g	2b
=207	=207	=207	=207
2AA	2c	1e	2a
2E	2B	.	2g
2r	1A	1e	2a
[2A	.	.	[2cc
=208	=208	=208	=208
2A]	1c	2.f	4cc]
.	.	.	4b
2F	.	.	2a
.	.	4e	.
2G	2B	2d	2g
2A	[2A	2c	2f
=209	=209	=209	=209
1E	2A]	1B	0e
.	2G#	.	.
1AA	1A	1c	.
=210	=210	=210	=210
0r	1F	2r	1a
.	.	1f	.
.	1c	.	1g
.	.	[2e	.
=211	=211	=211	=211
0r	1d	2e]	1f
.	.	1d	.
.	[1A	.	[1e
.	.	4c#	.
.	.	4B	.
=212	=212	=212	=212
0r	2A]	2c#	2e]
.	2D	2d	2f
.	[1G	[1B	2e
.	.	.	2d
=213	=213	=213	=213
0r	2G]	2B]	4e
.	.	.	4d
.	2F	2A	1d
.	2E	2G	.
.	2E	2G	2c#
=214	=214	=214	=214
1r	1D	1A	2d
.	.	.	2a
1FF	1A	2r	[1cc
.	.	[2f	.
=215	=215	=215	=215
1C	1G	2f]	1cc]
.	.	1e	.
1D	1F	.	[1a
.	.	[2d	.
=216	=216	=216	=216
1.AA	1.E	2d]	1a]
.	.	4c	.
.	.	4B	.
.	.	[1c	1a
2FF	2F	.	.
=217	=217	=217	=217
2C	2E	2c]	2g
2D	2D	2A	2f#
2C	2E	2c	1g
2GG	[2D	[2B-	.
=218	=218	=218	=218
1AA	2D]	4B-]	2f
.	.	4A	.
.	2C#	2.A	2.e
1BB-	1D	.	.
.	.	8G	4d
.	.	8F	.
.	.	2G	[2d
=219	=219	=219	=219
1AA	1E	2A	2d]
.	.	2A	2c#
1D	2r	[1A	1d
.	[2F	.	.
=220	=220	=220	=220
2r	4F]	1A]	2.f
.	4G	.	.
2.F	2A	.	.
.	.	.	4g
.	2D	2.F	1a
4G	.	.	.
2A	[2F	.	.
.	.	4G	.
=221	=221	=221	=221
2D	4F]	2A	2.f
.	4G	.	.
2.F	2.A	2D	.
.	.	.	4g
.	.	2.F	1a
4G	4G	.	.
[2A	4F	.	.
.	4E	4G	.
=222	=222	=222	=222
4A]	2.D	0A	2.f
4G	.	.	.
4F	.	.	.
4E	4E	.	4g
2.D	[1F	.	4a
.	.	.	4g
.	.	.	4f
4C	.	.	4e
=223	=223	=223	=223
4BB-	2F]	1.B-	0d
4AA	.	.	.
1GG	1G	.	.
2FF#	2A	2A	.
=224	=224	=224	=224
0GG	2.B-	2.G	[0d
.	4A	4A	.
.	1G	1B-	.
=225	=225	=225	=225
0D	0F#	0A	0d]
==	==	==	==
*-	*-	*-	*-
!!!CDT: 1525/^1526/-1594/2/2
!!!OCY: Italia
!!!AGN: Mass (Paraphrase)
!!!AST: renaissance, vocal
!!!ASW: Gregorian Mass
!!!PWK: Masses, Book 7
!!!RNB: Cadence finals: C,G,A,D
!!!YOR: Le Opere Complete, v. 23, p. 182
!!!YOO: Rome, Italy: Fratelli Scalera
!!!END: 1992//
!!!EED: John Miller
!!!YEC: Copyright 2000, John Miller
!!!YEN: United States of America
!!!YEM: Rights to all derivative electronic formats reserved.
!!!YEM: Refer to licensing agreement for further details.
!!!YEM: This file must be accompanied by the licensing agreement.
!!!YEM: A copy of the licensing agreement may be found at http://www.music-cog.ohio-state.edu/HumdrumDatabases/Palestrina/license.txt
!!!EMD: converted to Humdrum by Bret Aarden
